X: 1
I: linebreak $
T: Allegrezza d'Amore
K: C major
M: 3/4
L: 1/8
g2f2 |: 
P: A
"C"e3de2 | "C"c2d2e2 | "Bb"f4f2 | "Bb"f2g2f2 | "C"e3de2 | "Am"c3dc2 | 
"G"d4d2 |  [1 "G"d2g2f2 :|]  [2 "G"d4"Am"c2 :| 
P: B
"G"d4d2 | "G"d4"Am"c2 | "G"d4d2 | 
"G"d4"Am"c2 | "G"d4d2 | "G"d2d2"C"c2 | "G"d3cB2 | "D"A3GA2 | "G"B4B2 | 
"G"B2g2f2 | "C"e3dc2 | "G"d2c2d2 | "C"e4e2 | "C"e2_B2c2 | "Bb"d4d2 | 
"Bb"d4"F"c2 | "Bb"d4d2 | "Bb"d2g2f2 | "C"e3dc2 | "G"d3cd2 | "C"e4e2 | 
"C"e4 |] 

